apps/dunggramer/src/assets/files.svg

<svg
                class="button__icon"
                xmlns="http://www.w3.org/2000/svg"
                width="24"
                height="24"
                viewBox="0 0 24 24"
                fill="none"
              >
                <path
                  d="M15.25 22.7502H9.25C3.82 22.7502 1.5 20.4302 1.5 15.0002V9.00024C1.5 3.57024 3.82 1.25024 9.25 1.25024H14.25C14.66 1.25024 15 1.59024 15 2.00024C15 2.41024 14.66 2.75024 14.25 2.75024H9.25C4.64 2.75024 3 4.39024 3 9.00024V15.0002C3 19.6102 4.64 21.2502 9.25 21.2502H15.25C19.86 21.2502 21.5 19.6102 21.5 15.0002V10.0002C21.5 9.59024 21.84 9.25024 22.25 9.25024C22.66 9.25024 23 9.59024 23 10.0002V15.0002C23 20.4302 20.68 22.7502 15.25 22.7502Z"
                  fill="#000"
                ></path>
                <path
                  d="M22.25 10.7502H18.25C14.83 10.7502 13.5 9.42023 13.5 6.00023V2.00023C13.5 1.70023 13.68 1.42023 13.96 1.31023C14.24 1.19023 14.56 1.26023 14.78 1.47023L22.78 9.47023C22.99 9.68023 23.06 10.0102 22.94 10.2902C22.82 10.5702 22.55 10.7502 22.25 10.7502ZM15 3.81023V6.00023C15 8.58023 15.67 9.25023 18.25 9.25023H20.44L15 3.81023Z"
                  fill="#000"
                ></path>
                <path
                  d="M13.25 13.7502H7.25C6.84 13.7502 6.5 13.4102 6.5 13.0002C6.5 12.5902 6.84 12.2502 7.25 12.2502H13.25C13.66 12.2502 14 12.5902 14 13.0002C14 13.4102 13.66 13.7502 13.25 13.7502Z"
                  fill="#000"
                ></path>
                <path
                  d="M11.25 17.7502H7.25C6.84 17.7502 6.5 17.4102 6.5 17.0002C6.5 16.5902 6.84 16.2502 7.25 16.2502H11.25C11.66 16.2502 12 16.5902 12 17.0002C12 17.4102 11.66 17.7502 11.25 17.7502Z"
                  fill="#000"
                ></path>
              </svg>

<svg xmlns="http://www.w3.org/2000/svg" width="24" height="24" fill="none" class="files"><path d="M15.25 22.75h-6c-5.43 0-7.75-2.32-7.75-7.75V9c0-5.43 2.32-7.75 7.75-7.75h5c.41 0 .75.34.75.75s-.34.75-.75.75h-5C4.64 2.75 3 4.39 3 9v6c0 4.61 1.64 6.25 6.25 6.25h6c4.61 0 6.25-1.64 6.25-6.25v-5c0-.41.34-.75.75-.75s.75.34.75.75v5c0 5.43-2.32 7.75-7.75 7.75Z"/><path d="M22.25 10.75h-4c-3.42 0-4.75-1.33-4.75-4.75V2c0-.3.18-.58.46-.69.28-.12.6-.05.82.16l8 8a.751.751 0 0 1-.53 1.28ZM15 3.81V6c0 2.58.67 3.25 3.25 3.25h2.19L15 3.81ZM13.25 13.75h-6c-.41 0-.75-.34-.75-.75s.34-.75.75-.75h6c.41 0 .75.34.75.75s-.34.75-.75.75ZM11.25 17.75h-4c-.41 0-.75-.34-.75-.75s.34-.75.75-.75h4c.41 0 .75.34.75.75s-.34.75-.75.75Z"/></svg>
